Newaita-dark/apps/32/gthumb.svg

<?xml version="1.0" encoding="UTF-8"?>
<svg xmlns="http://www.w3.org/2000/svg" xmlns:xlink="http://www.w3.org/1999/xlink" width="32pt" height="32pt" viewBox="0 0 32 32" version="1.1">
<defs>
<linearGradient id="linear0" gradientUnits="userSpaceOnUse" x1="305.954559" y1="-31.87709" x2="305.954559" y2="-135.329163" gradientTransform="matrix(0.0753497,0,0,0.217412,-5.854013,33.641348)">
<stop offset="0" style="stop-color:rgb(50.588235%,83.137255%,98.039216%);stop-opacity:1;"/>
<stop offset="1" style="stop-color:rgb(98.823529%,89.411765%,92.54902%);stop-opacity:1;"/>
</linearGradient>
<linearGradient id="linear1" gradientUnits="userSpaceOnUse" x1="254" y1="233.5" x2="254" y2="254.666672" gradientTransform="matrix(0.062506,0,0,0.062506,-0.00000381506,13.438783)">
<stop offset="0" style="stop-color:rgb(0%,0%,0%);stop-opacity:0.27451;"/>
<stop offset="1" style="stop-color:rgb(0%,0%,0%);stop-opacity:0;"/>
</linearGradient>
<radialGradient id="radial0" gradientUnits="userSpaceOnUse" cx="450.908936" cy="189.579361" fx="450.908936" fy="189.579361" r="21.166656" gradientTransform="matrix(0.00000017417,-0.0781325,-0.140638,-0.000000101539,53.453691,63.595331)">
<stop offset="0" style="stop-color:rgb(0%,0%,0%);stop-opacity:0.313725;"/>
<stop offset="0.222222" style="stop-color:rgb(0%,0%,0%);stop-opacity:0.27451;"/>
<stop offset="1" style="stop-color:rgb(0%,0%,0%);stop-opacity:0;"/>
</radialGradient>
<radialGradient id="radial1" gradientUnits="userSpaceOnUse" cx="450.908936" cy="189.579361" fx="450.908936" fy="189.579361" r="21.166656" gradientTransform="matrix(-0.00000017417,0.0781325,0.140638,0.000000101539,-21.700661,-7.527481)">
<stop offset="0" style="stop-color:rgb(0%,0%,0%);stop-opacity:0.313725;"/>
<stop offset="0.222222" style="stop-color:rgb(0%,0%,0%);stop-opacity:0.27451;"/>
<stop offset="1" style="stop-color:rgb(0%,0%,0%);stop-opacity:0;"/>
</radialGradient>
<radialGradient id="radial2" gradientUnits="userSpaceOnUse" cx="450.908936" cy="189.579361" fx="450.908936" fy="189.579361" r="21.166656" gradientTransform="matrix(-0.00000017417,-0.0781325,0.140638,-0.000000101539,-21.700661,63.595331)">
<stop offset="0" style="stop-color:rgb(0%,0%,0%);stop-opacity:0.313725;"/>
<stop offset="0.222222" style="stop-color:rgb(0%,0%,0%);stop-opacity:0.27451;"/>
<stop offset="1" style="stop-color:rgb(0%,0%,0%);stop-opacity:0;"/>
</radialGradient>
<radialGradient id="radial3" gradientUnits="userSpaceOnUse" cx="450.908936" cy="189.579361" fx="450.908936" fy="189.579361" r="21.166656" gradientTransform="matrix(0.00000017417,0.0781325,-0.140638,0.000000101539,53.453689,-7.527481)">
<stop offset="0" style="stop-color:rgb(0%,0%,0%);stop-opacity:0.313725;"/>
<stop offset="0.222222" style="stop-color:rgb(0%,0%,0%);stop-opacity:0.27451;"/>
<stop offset="1" style="stop-color:rgb(0%,0%,0%);stop-opacity:0;"/>
</radialGradient>
<linearGradient id="linear2" gradientUnits="userSpaceOnUse" x1="960" y1="1615.118164" x2="960" y2="1015.118103" gradientTransform="matrix(0.016538,0,0,0.016538,0,1.323059)">
<stop offset="0" style="stop-color:rgb(27.058824%,35.294118%,39.215686%);stop-opacity:1;"/>
<stop offset="1" style="stop-color:rgb(47.058824%,56.470588%,61.176471%);stop-opacity:1;"/>
</linearGradient>
<linearGradient id="linear3" gradientUnits="userSpaceOnUse" x1="359.833344" y1="-20.5" x2="359.833344" y2="-105.166672" gradientTransform="matrix(0.062506,0,0,0.062506,0,13.438783)">
<stop offset="0" style="stop-color:rgb(89.803922%,45.098039%,45.098039%);stop-opacity:1;"/>
<stop offset="1" style="stop-color:rgb(93.72549%,60.392157%,60.392157%);stop-opacity:1;"/>
</linearGradient>
</defs>
<g id="surface1">
<path style=" stroke:none;fill-rule:nonzero;fill:url(#linear0);" d="M 3.308594 4.21875 L 28.445312 4.21875 C 29.175781 4.21875 29.769531 4.8125 29.769531 5.542969 L 29.769531 26.710938 C 29.769531 27.441406 29.175781 28.035156 28.445312 28.035156 L 3.308594 28.035156 C 2.578125 28.035156 1.984375 27.441406 1.984375 26.710938 L 1.984375 5.542969 C 1.984375 4.8125 2.578125 4.21875 3.308594 4.21875 Z M 3.308594 4.21875 "/>
<path style=" stroke:none;fill-rule:nonzero;fill:url(#linear1);" d="M 4.628906 28.035156 L 27.121094 28.035156 L 27.121094 29.320312 L 4.628906 29.320312 Z M 4.628906 28.035156 "/>
<path style=" stroke:none;fill-rule:nonzero;fill:url(#radial0);" d="M 27.121094 28.035156 L 29.769531 28.035156 L 29.769531 26.710938 L 27.121094 26.710938 Z M 27.121094 28.035156 "/>
<path style=" stroke:none;fill-rule:nonzero;fill:url(#radial1);" d="M 4.628906 28.035156 L 1.984375 28.035156 L 1.984375 29.355469 L 4.628906 29.355469 Z M 4.628906 28.035156 "/>
<path style=" stroke:none;fill-rule:nonzero;fill:url(#radial2);" d="M 4.628906 28.035156 L 1.984375 28.035156 L 1.984375 26.710938 L 4.628906 26.710938 Z M 4.628906 28.035156 "/>
<path style=" stroke:none;fill-rule:nonzero;fill:url(#radial3);" d="M 27.121094 28.035156 L 29.769531 28.035156 L 29.769531 29.355469 L 27.121094 29.355469 Z M 27.121094 28.035156 "/>
<path style=" stroke:none;fill-rule:nonzero;fill:url(#linear2);" d="M 1.984375 20.757812 L 1.984375 26.710938 C 1.984375 27.445312 2.574219 28.035156 3.308594 28.035156 L 28.445312 28.035156 C 29.179688 28.035156 29.769531 27.445312 29.769531 26.710938 L 29.769531 20.757812 C 24.269531 23.976562 22.484375 20.390625 20.238281 19.800781 C 17.839844 19.171875 17.382812 22.03125 14.957031 21.738281 C 12.535156 21.445312 9.449219 17.796875 7.21875 18.027344 C 4.988281 18.253906 3.863281 19.570312 1.984375 20.757812 Z M 1.984375 20.757812 "/>
<path style=" stroke:none;fill-rule:nonzero;fill:url(#linear3);" d="M 22.492188 6.867188 C 23.953125 6.867188 25.136719 8.050781 25.136719 9.511719 C 25.136719 10.972656 23.953125 12.15625 22.492188 12.15625 C 21.03125 12.15625 19.84375 10.972656 19.84375 9.511719 C 19.84375 8.050781 21.03125 6.867188 22.492188 6.867188 Z M 22.492188 6.867188 "/>
<path style=" stroke:none;fill-rule:nonzero;fill:rgb(0%,0%,0%);fill-opacity:0.117647;" d="M 5.292969 6.535156 L 26.460938 6.535156 C 27.007812 6.535156 27.453125 6.960938 27.453125 7.488281 L 27.453125 23.441406 C 27.453125 23.96875 27.007812 24.394531 26.460938 24.394531 L 5.292969 24.394531 C 4.746094 24.394531 4.300781 23.96875 4.300781 23.441406 L 4.300781 7.488281 C 4.300781 6.960938 4.746094 6.535156 5.292969 6.535156 Z M 5.292969 6.535156 "/>
<path style=" stroke:none;fill-rule:nonzero;fill:rgb(0%,0%,0%);fill-opacity:0.470588;" d="M 5.292969 6.203125 C 4.558594 6.203125 3.96875 6.792969 3.96875 7.527344 L 3.96875 23.402344 C 3.96875 24.136719 4.558594 24.726562 5.292969 24.726562 L 26.460938 24.726562 C 27.195312 24.726562 27.785156 24.136719 27.785156 23.402344 L 27.785156 7.527344 C 27.785156 6.792969 27.195312 6.203125 26.460938 6.203125 Z M 5.292969 6.367188 L 26.460938 6.367188 C 27.101562 6.367188 27.617188 6.886719 27.617188 7.527344 L 27.617188 23.402344 C 27.617188 24.042969 27.101562 24.5625 26.460938 24.5625 L 5.292969 24.5625 C 4.652344 24.5625 4.132812 24.042969 4.132812 23.402344 L 4.132812 7.527344 C 4.132812 6.886719 4.652344 6.367188 5.292969 6.367188 Z M 5.292969 6.367188 "/>
<path style=" stroke:none;fill-rule:nonzero;fill:rgb(84.313726%,84.313726%,84.313726%);fill-opacity:0.705882;" d="M 5.292969 6.367188 C 4.652344 6.367188 4.132812 6.886719 4.132812 7.527344 L 4.132812 23.402344 C 4.132812 24.042969 4.652344 24.5625 5.292969 24.5625 L 26.460938 24.5625 C 27.101562 24.5625 27.617188 24.042969 27.617188 23.402344 L 27.617188 7.527344 C 27.617188 6.886719 27.101562 6.367188 26.460938 6.367188 Z M 5.292969 6.535156 L 26.460938 6.535156 C 27.011719 6.535156 27.453125 6.976562 27.453125 7.527344 L 27.453125 23.402344 C 27.453125 23.953125 27.011719 24.394531 26.460938 24.394531 L 5.292969 24.394531 C 4.742188 24.394531 4.300781 23.953125 4.300781 23.402344 L 4.300781 7.527344 C 4.300781 6.976562 4.742188 6.535156 5.292969 6.535156 Z M 5.292969 6.535156 "/>
<path style=" stroke:none;fill-rule:nonzero;fill:rgb(89.019608%,89.019608%,89.019608%);fill-opacity:0.235294;" d="M 5.292969 6.699219 C 4.835938 6.699219 4.464844 7.070312 4.464844 7.527344 L 4.464844 13.070312 C 9.753906 10.828125 16.238281 9.511719 23.257812 9.511719 C 24.621094 9.511719 25.96875 9.5625 27.289062 9.65625 L 27.289062 7.527344 C 27.289062 7.070312 26.917969 6.699219 26.460938 6.699219 Z M 5.292969 6.699219 "/>
<path style=" stroke:none;fill-rule:nonzero;fill:rgb(100%,100%,100%);fill-opacity:0.588235;" d="M 3.308594 4.21875 C 2.574219 4.21875 1.984375 4.808594 1.984375 5.542969 L 1.984375 6.039062 C 1.984375 5.304688 2.574219 4.714844 3.308594 4.714844 L 28.445312 4.714844 C 29.179688 4.714844 29.769531 5.304688 29.769531 6.039062 L 29.769531 5.542969 C 29.769531 4.808594 29.179688 4.21875 28.445312 4.21875 Z M 3.308594 4.21875 "/>
<path style=" stroke:none;fill-rule:nonzero;fill:rgb(0%,0%,0%);fill-opacity:0.235294;" d="M 3.308594 28.035156 C 2.574219 28.035156 1.984375 27.445312 1.984375 26.710938 L 1.984375 26.214844 C 1.984375 26.949219 2.574219 27.539062 3.308594 27.539062 L 28.445312 27.539062 C 29.179688 27.539062 29.769531 26.949219 29.769531 26.214844 L 29.769531 26.710938 C 29.769531 27.445312 29.179688 28.035156 28.445312 28.035156 Z M 3.308594 28.035156 "/>
<path style="fill:none;stroke-width:3;stroke-linecap:round;stroke-linejoin:miter;stroke:rgb(12.941177%,12.941177%,12.941177%);stroke-opacity:1;stroke-miterlimit:4;" d="M 52.932445 -147.506445 L 455.081542 -147.506445 C 466.767926 -147.506445 476.267019 -138.007352 476.267019 -126.320968 L 476.267019 212.334192 C 476.267019 224.020576 466.767926 233.519669 455.081542 233.519669 L 52.932445 233.519669 C 41.246061 233.519669 31.746968 224.020576 31.746968 212.334192 L 31.746968 -126.320968 C 31.746968 -138.007352 41.246061 -147.506445 52.932445 -147.506445 Z M 52.932445 -147.506445 " transform="matrix(0.062506,0,0,0.062506,0,13.438783)"/>
</g>
</svg>

<svg xmlns="http://www.w3.org/2000/svg" width="32pt" height="32pt" viewBox="0 0 32 32"><defs><linearGradient id="a" gradientUnits="userSpaceOnUse" x1="305.955" y1="-31.877" x2="305.955" y2="-135.329" gradientTransform="matrix(.07535 0 0 .21741 -5.854 33.641)"><stop offset="0" stop-color="#81d4fa"/><stop offset="1" stop-color="#fce4ec"/></linearGradient><linearGradient id="b" gradientUnits="userSpaceOnUse" x1="254" y1="233.5" x2="254" y2="254.667" gradientTransform="matrix(.0625 0 0 .0625 0 13.439)"><stop offset="0" stop-opacity=".275"/><stop offset="1" stop-opacity="0"/></linearGradient><radialGradient id="c" gradientUnits="userSpaceOnUse" cx="450.909" cy="189.579" fx="450.909" fy="189.579" r="21.167" gradientTransform="matrix(0 -.07813 -.14064 0 53.454 63.595)"><stop offset="0" stop-opacity=".314"/><stop offset=".222" stop-opacity=".275"/><stop offset="1" stop-opacity="0"/></radialGradient><radialGradient id="d" gradientUnits="userSpaceOnUse" cx="450.909" cy="189.579" fx="450.909" fy="189.579" r="21.167" gradientTransform="matrix(0 .07813 .14064 0 -21.7 -7.527)"><stop offset="0" stop-opacity=".314"/><stop offset=".222" stop-opacity=".275"/><stop offset="1" stop-opacity="0"/></radialGradient><radialGradient id="e" gradientUnits="userSpaceOnUse" cx="450.909" cy="189.579" fx="450.909" fy="189.579" r="21.167" gradientTransform="matrix(0 -.07813 .14064 0 -21.7 63.595)"><stop offset="0" stop-opacity=".314"/><stop offset=".222" stop-opacity=".275"/><stop offset="1" stop-opacity="0"/></radialGradient><radialGradient id="f" gradientUnits="userSpaceOnUse" cx="450.909" cy="189.579" fx="450.909" fy="189.579" r="21.167" gradientTransform="matrix(0 .07813 -.14064 0 53.454 -7.527)"><stop offset="0" stop-opacity=".314"/><stop offset=".222" stop-opacity=".275"/><stop offset="1" stop-opacity="0"/></radialGradient><linearGradient id="g" gradientUnits="userSpaceOnUse" x1="960" y1="1615.118" x2="960" y2="1015.118" gradientTransform="matrix(.01654 0 0 .01654 0 1.323)"><stop offset="0" stop-color="#455a64"/><stop offset="1" stop-color="#78909c"/></linearGradient><linearGradient id="h" gradientUnits="userSpaceOnUse" x1="359.833" y1="-20.5" x2="359.833" y2="-105.167" gradientTransform="matrix(.0625 0 0 .0625 0 13.439)"><stop offset="0" stop-color="#e57373"/><stop offset="1" stop-color="#ef9a9a"/></linearGradient></defs><path d="M3.309 4.219h25.136c.73 0 1.325.593 1.325 1.324v21.168c0 .73-.594 1.324-1.325 1.324H3.31c-.73 0-1.325-.594-1.325-1.324V5.543c0-.73.594-1.324 1.325-1.324zm0 0" fill="url(#a)"/><path d="M4.629 28.035H27.12v1.285H4.63zm0 0" fill="url(#b)"/><path d="M27.121 28.035h2.649v-1.324H27.12zm0 0" fill="url(#c)"/><path d="M4.629 28.035H1.984v1.32H4.63zm0 0" fill="url(#d)"/><path d="M4.629 28.035H1.984v-1.324H4.63zm0 0" fill="url(#e)"/><path d="M27.121 28.035h2.649v1.32H27.12zm0 0" fill="url(#f)"/><path d="M1.984 20.758v5.953c0 .734.59 1.324 1.325 1.324h25.136a1.32 1.32 0 0 0 1.325-1.324v-5.953c-5.5 3.219-7.286-.367-9.532-.957-2.398-.63-2.855 2.23-5.281 1.937-2.422-.293-5.508-3.941-7.738-3.71-2.23.226-3.356 1.542-5.235 2.73zm0 0" fill="url(#g)"/><path d="M22.492 6.867a2.644 2.644 0 1 1 0 5.29 2.647 2.647 0 0 1-2.648-2.645 2.647 2.647 0 0 1 2.648-2.645zm0 0" fill="url(#h)"/><path d="M5.293 6.535h21.168c.547 0 .992.426.992.953v15.953c0 .528-.445.954-.992.954H5.293c-.547 0-.992-.426-.992-.954V7.488c0-.527.445-.953.992-.953zm0 0" fill-opacity=".118"/><path d="M5.293 6.203a1.32 1.32 0 0 0-1.324 1.324v15.875c0 .735.59 1.325 1.324 1.325h21.168a1.32 1.32 0 0 0 1.324-1.325V7.527a1.32 1.32 0 0 0-1.324-1.324zm0 .164h21.168c.64 0 1.156.52 1.156 1.16v15.875c0 .641-.515 1.16-1.156 1.16H5.293c-.64 0-1.16-.519-1.16-1.16V7.527c0-.64.52-1.16 1.16-1.16zm0 0" fill-opacity=".471"/><path d="M5.293 6.367c-.64 0-1.16.52-1.16 1.16v15.875c0 .641.52 1.16 1.16 1.16h21.168c.64 0 1.156-.519 1.156-1.16V7.527c0-.64-.515-1.16-1.156-1.16zm0 .168h21.168c.55 0 .992.442.992.992v15.875c0 .551-.441.993-.992.993H5.293a.989.989 0 0 1-.992-.993V7.527c0-.55.441-.992.992-.992zm0 0" fill="#d7d7d7" fill-opacity=".706"/><path d="M5.293 6.7a.829.829 0 0 0-.828.827v5.543c5.289-2.242 11.773-3.558 18.793-3.558 1.363 0 2.71.05 4.031.144V7.527a.829.829 0 0 0-.828-.828zm0 0" fill="#e3e3e3" fill-opacity=".235"/><path d="M3.309 4.219a1.32 1.32 0 0 0-1.325 1.324v.496c0-.734.59-1.324 1.325-1.324h25.136c.735 0 1.325.59 1.325 1.324v-.496a1.32 1.32 0 0 0-1.325-1.324zm0 0" fill="#fff" fill-opacity=".588"/><path d="M3.309 28.035a1.32 1.32 0 0 1-1.325-1.324v-.496c0 .734.59 1.324 1.325 1.324h25.136a1.32 1.32 0 0 0 1.325-1.324v.496a1.32 1.32 0 0 1-1.325 1.324zm0 0" fill-opacity=".235"/><path d="M3.309 4.219h25.136c.73 0 1.325.593 1.325 1.324v21.168c0 .73-.594 1.324-1.325 1.324H3.31c-.73 0-1.325-.594-1.325-1.324V5.543c0-.73.594-1.324 1.325-1.324zm0 0" fill="none" stroke-width=".18752999999999997" stroke-linecap="round" stroke="#212121"/></svg>
